X:6
T:Baz and Joy
M:2/4
L:1/8
C:Taz Tarry
S:Copyright B.Tarry 19th. July 1997
R:Schottische
Q:1/4=140
K:G
d2g>d|e2d2|(3Bcd d>B|A2G2|F>G A>B|c>B A>G|F>G A>B|c>A F>D|
d2g>d|e2d2|(3Bcd d>B|A2G2|F>G A>B|c>B A>G|F>D E>F|G2G2||
|:G>D E>D|F>D G>D|B>G A>B|c>B A>G|G>D E>D|F>D G>D|(3BAG A>F|G2G2:|

